build/flags/Norway.svg

<svg xmlns="http://www.w3.org/2000/svg" fill="none" viewBox="0 0 28 28" focusable="false"><defs><filter id="Norway_svg__a"><feColorMatrix values="0 0 0 0 1 0 0 0 0 1 0 0 0 0 1 0 0 0 1 0"/></filter></defs><mask id="Norway_svg__b" width="28" height="20" x="0" y="4" maskUnits="userSpaceOnUse"><g filter="url(#Norway_svg__a)"><rect width="28" height="20" y="4" fill="#FFF" rx="3"/><rect width="27.5" height="19.5" x=".25" y="4.25" stroke="#F5F5F5" stroke-width=".5" rx="2.75"/></g></mask><path fill="none" d="M0 0H28V28H0z"/><rect width="28" height="20" y="4" fill="#FFF" rx="3"/><rect width="27.5" height="19.5" x=".25" y="4.25" stroke="#D6D8DD" stroke-width=".5" rx="2.75"/><g mask="url(#Norway_svg__b)"><path fill="#F14247" fill-rule="evenodd" d="M28 12L28 4L12 4L12 12L28 12ZM28 16L12 16L12 24L28 24L28 16ZM8 24L8 16L0 16L0 24L8 24ZM0 12L0 4L8 4L8 12L0 12Z"/><path d="M28 12L28 4L12 4L12 12L28 12ZM28 16L12 16L12 24L28 24L28 16ZM8 24L8 16L0 16L0 24L8 24ZM0 12L0 4L8 4L8 12L0 12Z"/><path fill="#0A3A85" fill-rule="evenodd" d="M0 14.6667L9.33333 14.6667L9.33333 24L10.6667 24L10.6667 14.6667L28 14.6667L28 13.3333L10.6667 13.3333L10.6667 4L9.33333 4L9.33333 13.3333L0 13.3333L0 14.6667Z"/><path d="M9.33333 14.6667L9.33333 24L10.6667 24L10.6667 14.6667L28 14.6667L28 13.3333L10.6667 13.3333L10.6667 4L9.33333 4L9.33333 13.3333L0 13.3333L0 14.6667L9.33333 14.6667Z"/></g></svg>

<svg xmlns="http://www.w3.org/2000/svg" fill="none" viewBox="0 0 28 28" focusable="false"><path fill="none" d="M0 0h28v28H0z"/><rect width="28" height="20" y="4" fill="#FFF" rx="3"/><rect width="27.5" height="19.5" x=".25" y="4.25" stroke="#D6D8DD" stroke-width=".5" rx="3"/><mask id="Norway_svg__a" width="28" height="20" x="0" y="4" mask-type="alpha" maskUnits="userSpaceOnUse"><rect width="28" height="20" y="4" fill="#FFF" rx="3"/><rect width="27.5" height="19.5" x=".25" y="4.25" stroke="#F5F5F5" stroke-width=".5" rx="3"/></mask><g mask="url(#Norway_svg__a)"><mask id="Norway_svg__b" fill="#fff"><path fill-rule="evenodd" d="M8 4H0v8h8zm4 0v8h16V4zm16 12H12v8h16zM8 24v-8H0v8z" clip-rule="evenodd"/></mask><path fill="#F14247" fill-rule="evenodd" d="M8 4H0v8h8zm4 0v8h16V4zm16 12H12v8h16zM8 24v-8H0v8z" clip-rule="evenodd" mask="url(#Norway_svg__b)"/></g><g mask="url(#Norway_svg__a)"><path fill="#0A3A85" fill-rule="evenodd" d="M0 14.66h9.33V24h1.33v-9.34H28v-1.33H10.66V4H9.33v9.33H0z"/><path d="M9.33 14.66V24h1.33v-9.34H28v-1.33H10.66V4H9.33v9.33H0v1.33z"/></g></svg>
